X:1
T:A Major         Ananias Davisson, 1820
T:Anonymous, before 1810 78. 78. 78. 78.
T:The Rose Tree
T:Transcribed from Supplement to The Kentucky Harmony, 1825.
%%score [ 1 2 3 ]
L:1/8
Q:1/4=130
M:4/4
K:A
V:1 treble nm="Tr." snm="Tr."
V:2 treble-8 nm="T." snm="T."
V:3 bass nm="B." snm="B."
V:1
"^1. {" A4 |: c2 c2 B2 A2 | (B3 c) B2 cd | e2 c2 B2 AB |1 c2 e2 e4- | e4 A4 :|2 c2 c2 c4- | %7
w: There|is a land of|plea- * sure, Where *|peace and joy for- *|ev- er roll;|* Tis||
w: |there I have my|trea- * sure, And *|there I long to .|. . .|. .|rest my soul.|
"^}" c4 A4 || c2 e2 f2 f2 | (e3 f) c2 B2 | A2 c2 B2 c2 | f2 e2 e4 | f4 e2 c2 | BA F2 (A3 B) | %14
w: * Thick|dark- ness dwelt a-|round * me, With|scarce- ly once a|chee- ring ray;|But since my|Sa- * vior's found *|
w: |||||||
 c2 cd e2 f2 | e2 cB c2 c2 | c8 |] %17
w: me, A * lamp has|shone a- * long my|way.|
w: |||
V:2
"^2. {" c4 |: A2 F2 E2 D2 | (E3 F) E2 EF | A2 A2 B2 AB |1 c2 B2 B4- | B4 c4 :|2 c2 A2 A4- | %7
w: My|way is full of|dan- * ger, But *|tis the path that *|leads to God,|* And||
w: |like a faith- ful|sol- * dier, I'll *|march a- long the .|. . .|. .|heav'n- ly road:|
"^}" A4 d4 || c2 B2 c2 d2 | (e3 f) e2 c2 | d2 c2 d2 e2 | f2 B2 B4 | c4 A2 E2 | E2 C2 (E3 F) | %14
w: * Now|I will gird my|sword * on, My|breast- plate, hel- met,|and my shield,|And fight the|host of Sa- *|
w: |||||||
 E2 EF A2 c2 | B2 AB c2 A2 | A8 |] %17
w: tan, Un- * til I|reach the * heav'n- ly|field.|
w: |||
V:3
"^3. {" A,4 |: A,2 A,2 B,2 C2 | E4 E2 CB, | A,2 F,2 E,2 F,E, |1 C,2 E,2 E,4- | E,4 A,4 :|2 %6
w: I'm|on my way to|Ca- naan, Still *|gui- ded by my *|Sa- vior's hand;|* Come|
w: |on a- long, dear|sin- ner, And *|view Em- ma- nuel's .|. . .|. .|
 A,2 A,2 A,4- |"^}" A,4 D,4 || C,2 E,2 A,2 B,2 | E,4 F,2 G,2 | A,2 A,2 B,2 C2 | B,2 A,2 E,4 | %12
w: |* To|all that stay be-|hind me, I|bid a long, a|long fare- well;|
w: hap- py land.||||||
 F,4 A,2 A,2 | B,2 C2 E4 | E2 CB, A,2 F,2 | %15
w: O come, or|you'll re- peat|it, When * you shall|
w: |||
"^4. The vale of tears surrounds me,\nAnd Jordan's current rolls before;\nWhy should I fear or tremble\nTo hear the dismal waters roar?\nHis hand will then support me\nAnd keep my soul from sinking there,\nFrom sinking down to darkness,\nInto the regions of despair.\n5. This stream shall not affright me,\nAlthough 'tis deeper than the grave;\nIf Jesus stands besides me,\nI'll smoothly ride o'er Jordan's wave,\nHis word has calmed the ocean,\nHis lamp has cheered the gloomy vale,\nO may this friend be with me\nWhen thro the gates of death I sail," E,2 C,B,, C,2 A,,2 | %16
w: reach the * gates of|
w: |
"^6. Then come, thou king of terrors,\nAnd with thy dagger lay me low;\nI'll sooner reach those mansions\nWhere everlasting pleasures flow.\nO Christians, I must leave you,\nNo more to join your social band;\nNo more to stand beside you,\nTill at the judgment bar we stand.\n7. Soon the archangel's trumpet\nShall shake the globe from pole to pole,\nAnd all the wheels of nature\nShall in a moment cease to roll;\nThen we shall see our Jesus,\nWith shining ranks of angels, come\nTo execute his vengeance,\nAnd take his ransomed children home.\n""^______________________________________________\nA folk hymn (Jackson 1953b, No. 92)." A,,8 |] %17
w: hell.|
w: |

